www/assets/icons/playlist_add_check.svg

<svg xmlns="http://www.w3.org/2000/svg" width="24" height="24" viewBox="0 0 24 24" fill='currentColor'><path d="M13.5 9.5h-11v2h11zm0-4h-11v2h11zm-4 8h-7v2h7zm10.59-2.07-4.25 4.24-2.12-2.12-1.41 1.41 3.53 3.54 5.66-5.66z"/></svg>

<svg width="24" height="24" viewBox="0 0 24 24" xmlns="http://www.w3.org/2000/svg" fill='currentColor'><path d="M13.5 9.5H2.5V11.5H13.5V9.5Z"/><path d="M13.5 5.5H2.5V7.5H13.5V5.5Z"/><path d="M9.5 13.5H2.5V15.5H9.5V13.5Z"/><path d="M20.09 11.43L15.84 15.67L13.72 13.55L12.31 14.96L15.84 18.5L21.5 12.84L20.09 11.43Z"/></svg>
